X: 1
T: the Sow's Tail
C: attr. Neil Gow
R: strathspey
P: for the 8x32S3 strathspey The Sow's Tail
B: "Caledonian Country Dances" c. 1748
B: RSCDS "Five Traditional Scottish Country Dances for 1965"
S: Neil Gow
Z: 2013 John Chambers <jc:trillian.mit.edu>
M: C
L: 1/8
K: D
F |\
"D"A>B AF "G"E>F GE | "A"A>B "D"AF "A"A>B "Bm"de |\
"D"f2 aA "Em"E>F GE | "A7"A>B AG "D"F2 D :|
|: f |\
"D"a>b af "Em"e>f ge | "A"a>b af "D"d>e fe/d/ |\
"G"gb/g/ "D"fa/f/ "Em"e>f gf/e/ | "A7"a>b ag | "D"f2 d :|
